src/icons/services/copyrighting.svg

<svg width="52" height="52" viewBox="0 0 52 52" fill="none" xmlns="http://www.w3.org/2000/svg">
<path d="M50.5374 9.66883C50.5374 9.01883 50.2937 8.36883 49.8062 7.88133C48.8312 6.90633 47.8562 5.93133 46.9624 4.95633C46.0687 4.06258 45.2562 3.16883 44.3624 2.35633C43.9562 1.86883 43.4687 1.54383 42.8187 1.46258C42.0874 1.38133 41.4374 1.54383 40.8687 2.03133L35.3437 7.55633H6.58115C3.81865 7.55633 1.4624 9.83133 1.4624 12.6751V45.5001C1.4624 48.2626 3.7374 50.6188 6.58115 50.6188H39.4874C42.2499 50.6188 44.6062 48.3438 44.6062 45.5001V16.6563L49.8874 11.3751C50.2937 10.8876 50.5374 10.3188 50.5374 9.66883ZM26.6499 29.2501C26.5687 29.3313 26.5687 29.3313 26.4874 29.3313L20.6374 31.2813L22.5874 25.4313C22.5874 25.3501 22.6687 25.3501 22.6687 25.2688L37.2937 10.6438L41.3562 14.6251L26.6499 29.2501ZM40.8687 45.5001C40.8687 46.3126 40.2187 46.9626 39.4062 46.9626H6.58115C5.76865 46.9626 5.11865 46.3126 5.11865 45.5001V12.5938C5.11865 11.7813 5.76865 11.1313 6.58115 11.1313H31.6062L20.0687 22.7501C19.6624 23.1563 19.2562 23.7251 19.0937 24.3751L16.0874 33.4751C15.8437 34.1251 16.0062 34.6938 16.3312 35.2626C16.5749 35.5876 17.0624 36.0751 17.9562 36.0751H18.2812L27.6249 32.9876C28.1937 32.8251 28.7624 32.4188 29.1687 32.0126L40.8687 20.3126V45.5001ZM43.8749 12.1063L39.8124 8.12508L42.3312 5.60633C42.9812 6.25633 45.6624 8.93758 46.3124 9.66883L43.8749 12.1063Z" fill="#9D74D3"/>
</svg>

<svg xmlns="http://www.w3.org/2000/svg" width="52" height="52" fill="none"  ><path d="M50.537 9.669a2.52 2.52 0 0 0-.731-1.787l-2.844-2.925-2.6-2.6c-.406-.487-.894-.812-1.544-.894-.731-.081-1.381.081-1.95.569l-5.525 5.525H6.581c-2.762 0-5.119 2.275-5.119 5.119V45.5c0 2.762 2.275 5.119 5.119 5.119h32.906c2.762 0 5.119-2.275 5.119-5.119V16.656l5.281-5.281c.406-.487.65-1.056.65-1.706zM26.65 29.25c-.081.081-.081.081-.162.081l-5.85 1.95 1.95-5.85c0-.081.081-.081.081-.163l14.625-14.625 4.063 3.981L26.65 29.25zM40.869 45.5c0 .813-.65 1.462-1.462 1.462H6.581c-.812 0-1.463-.65-1.463-1.462V12.594c0-.812.65-1.463 1.463-1.463h25.025L20.069 22.75c-.406.406-.812.975-.975 1.625l-3.006 9.1c-.244.65-.081 1.219.244 1.788.244.325.731.813 1.625.813h.325l9.344-3.087c.569-.163 1.137-.569 1.544-.975l11.7-11.7V45.5zm3.006-33.394l-4.062-3.981 2.519-2.519 3.981 4.063-2.437 2.437z" fill="#9d74d3"/></svg>
